file/conduent.svg

<svg clip-rule="evenodd" fill-rule="evenodd" stroke-linejoin="round" stroke-miterlimit="1.41421" viewBox="0 0 560 400" xmlns="http://www.w3.org/2000/svg"><g fill-rule="nonzero" transform="matrix(.663717 0 0 .663717 100 153.805)"><g><path d="m65.4 57c-13.6 0-24.7 11.1-24.7 24.7s11 24.7 24.7 24.7c13.6 0 24.7-11.1 24.7-24.7 0-13.7-11-24.7-24.7-24.7zm0 38.1c-7.7 0-12.4-5.8-12.4-13.5s4.6-13.5 12.4-13.5 12.4 5.8 12.4 13.5-4.7 13.5-12.4 13.5z"/><path d="m95.6 105.1h12.3v-27.5l19 27.5h12.2v-46.9h-12.2v27.5l-19-27.5h-12.3z"/><path d="m168.3 58.2h-20.4v46.8h20.5c13.1 0 22.9-10.4 22.9-23.4-.1-12.9-8.6-23.4-23-23.4zm-2.3 36.4h-5.8v-26h5.8c8.2 0 12.5 5 12.5 13-.1 8.2-4.2 13-12.5 13z"/><path d="m226.2 82.9c0 6.4-1.4 12.2-8.7 12.2s-8.7-5.8-8.7-12.2v-24.6h-12.3v26.3c0 14.3 8.3 21.7 21 21.7s21-7.9 21-21.7v-26.3h-12.3z"/><path d="m278.1 105.1v-10.5h-20.3v-7.9h17.4v-10.4h-17.4v-7.6h20.3v-10.5h-32.6v46.9z"/><g fill="#ff8700"><path d="m401.3 139.2v-68.2l41-23.7v68.2z"/><path d="m542.4 105.1-59 34.1-41.1-23.7 59.1-34.1z"/><path d="m442.3 0 59.1 34v47.4l-59.1-34.1z"/></g><path d="m36.8 90.9c-2.1 1.8-6.3 4.2-11 4.2-7.9 0-13.4-5.8-13.4-13.5s5.3-13.5 13.2-13.5c4.8 0 8.7 2 11.1 4v-12.3c-2.6-1.5-6.2-2.9-12.3-2.9-13.3 0-24.4 9.6-24.4 24.7 0 15.3 9.8 24.7 24.7 24.7 4.1 0 8.9-1.1 12-3.1z"/><path d="m355.6 68.7h14.6v-10.5h-53.8v27.5l-19-27.5h-12.3v46.9h12.3v-27.5l19 27.5h12.3v-36.4h14.6v36.4h12.3z"/></g><g fill="#ff8700"><path d="m507.9 132.4h5.4v1.1h-2v5.6h-1.4v-5.6h-2z"/><path d="m514.6 132.4h1.9l1 3.4c.1.2.1.4.2.6s.1.4.1.6.1.4.1.6c0-.2.1-.4.1-.6s.1-.4.1-.6.1-.4.2-.6l.9-3.4h1.9v6.7h-1.3v-3.9-1.4c0 .2-.1.3-.1.5 0 .1-.1.3-.1.4s-.1.3-.1.4l-1.2 4h-1.3l-1.1-4c0-.1-.1-.3-.1-.4s-.1-.3-.1-.4c0-.2-.1-.3-.1-.5v5.3h-1.3v-6.7z"/></g></g></svg>

<?xml version="1.0" encoding="UTF-8" standalone="no"?>
<!DOCTYPE svg PUBLIC "-//W3C//DTD SVG 1.1//EN" "http://www.w3.org/Graphics/SVG/1.1/DTD/svg11.dtd">
<svg width="100%" height="100%" viewBox="0 0 560 400" version="1.1" xmlns="http://www.w3.org/2000/svg" xmlns:xlink="http://www.w3.org/1999/xlink" xml:space="preserve" xmlns:serif="http://www.serif.com/" style="fill-rule:evenodd;clip-rule:evenodd;stroke-linejoin:round;stroke-miterlimit:1.41421;">
    <g transform="matrix(0.663717,0,0,0.663717,100,153.805)">
        <g id="g14783">
            <path id="path14785" d="M65.4,57C51.8,57 40.7,68.1 40.7,81.7C40.7,95.3 51.7,106.4 65.4,106.4C79,106.4 90.1,95.3 90.1,81.7C90.1,68 79.1,57 65.4,57ZM65.4,95.1C57.7,95.1 53,89.3 53,81.6C53,73.9 57.6,68.1 65.4,68.1C73.2,68.1 77.8,73.9 77.8,81.6C77.8,89.3 73.1,95.1 65.4,95.1Z" style="fill-rule:nonzero;"/>
            <path id="polygon14787" d="M95.6,105.1L107.9,105.1L107.9,77.6L126.9,105.1L139.1,105.1L139.1,58.2L126.9,58.2L126.9,85.7L107.9,58.2L95.6,58.2L95.6,105.1Z" style="fill-rule:nonzero;"/>
            <path id="path14789" d="M168.3,58.2L147.9,58.2L147.9,105L168.4,105C181.5,105 191.3,94.6 191.3,81.6C191.2,68.7 182.7,58.2 168.3,58.2ZM166,94.6L160.2,94.6L160.2,68.6L166,68.6C174.2,68.6 178.5,73.6 178.5,81.6C178.4,89.8 174.3,94.6 166,94.6Z" style="fill-rule:nonzero;"/>
            <path id="path14791" d="M226.2,82.9C226.2,89.3 224.8,95.1 217.5,95.1C210.2,95.1 208.8,89.3 208.8,82.9L208.8,58.3L196.5,58.3L196.5,84.6C196.5,98.9 204.8,106.3 217.5,106.3C230.2,106.3 238.5,98.4 238.5,84.6L238.5,58.3L226.2,58.3L226.2,82.9Z" style="fill-rule:nonzero;"/>
            <path id="polygon14793" d="M278.1,105.1L278.1,94.6L257.8,94.6L257.8,86.7L275.2,86.7L275.2,76.3L257.8,76.3L257.8,68.7L278.1,68.7L278.1,58.2L245.5,58.2L245.5,105.1L278.1,105.1Z" style="fill-rule:nonzero;"/>
            <g id="g14795">
                <path id="polygon14797" d="M401.3,139.2L401.3,71L442.3,47.3L442.3,115.5L401.3,139.2Z" style="fill:rgb(255,135,0);fill-rule:nonzero;"/>
                <path id="polygon14799" d="M542.4,105.1L483.4,139.2L442.3,115.5L501.4,81.4L542.4,105.1Z" style="fill:rgb(255,135,0);fill-rule:nonzero;"/>
                <path id="polygon14801" d="M442.3,0L501.4,34L501.4,81.4L442.3,47.3L442.3,0Z" style="fill:rgb(255,135,0);fill-rule:nonzero;"/>
            </g>
            <path id="path14803" d="M36.8,90.9C34.7,92.7 30.5,95.1 25.8,95.1C17.9,95.1 12.4,89.3 12.4,81.6C12.4,73.9 17.7,68.1 25.6,68.1C30.4,68.1 34.3,70.1 36.7,72.1L36.7,59.8C34.1,58.3 30.5,56.9 24.4,56.9C11.1,56.9 0,66.5 0,81.6C0,96.9 9.8,106.3 24.7,106.3C28.8,106.3 33.6,105.2 36.7,103.2L36.8,90.9Z" style="fill-rule:nonzero;"/>
            <path id="polygon14805" d="M355.6,68.7L370.2,68.7L370.2,58.2L316.4,58.2L316.4,85.7L297.4,58.2L285.1,58.2L285.1,105.1L297.4,105.1L297.4,77.6L316.4,105.1L328.7,105.1L328.7,68.7L343.3,68.7L343.3,105.1L355.6,105.1L355.6,68.7Z" style="fill-rule:nonzero;"/>
        </g>
        <g id="g14808">
            <path id="path14810" d="M507.9,132.4L513.3,132.4L513.3,133.5L511.3,133.5L511.3,139.1L509.9,139.1L509.9,133.5L507.9,133.5L507.9,132.4Z" style="fill:rgb(255,135,0);fill-rule:nonzero;"/>
            <path id="path14812" d="M514.6,132.4L516.5,132.4L517.5,135.8C517.6,136 517.6,136.2 517.7,136.4C517.8,136.6 517.8,136.8 517.8,137C517.8,137.2 517.9,137.4 517.9,137.6C517.9,137.4 518,137.2 518,137C518,136.8 518.1,136.6 518.1,136.4C518.1,136.2 518.2,136 518.3,135.8L519.2,132.4L521.1,132.4L521.1,139.1L519.8,139.1L519.8,135.2L519.8,133.8C519.8,134 519.7,134.1 519.7,134.3C519.7,134.4 519.6,134.6 519.6,134.7C519.6,134.8 519.5,135 519.5,135.1L518.3,139.1L517,139.1L515.9,135.1C515.9,135 515.8,134.8 515.8,134.7C515.8,134.6 515.7,134.4 515.7,134.3C515.7,134.1 515.6,134 515.6,133.8L515.6,139.1L514.3,139.1L514.3,132.4L514.6,132.4Z" style="fill:rgb(255,135,0);fill-rule:nonzero;"/>
        </g>
    </g>
</svg>
